X:12886
T:Pasucis (MG 16)
R:Pasucis
C:Versin de Xuann de la Villa
S:Msica Tradicional Asturiana, (C) Tello & Tito. Asturies, 2001.
S:http://pagina.de/MusTradAst <telloytito@asturies.org>
A:Asturies
Z:Mtodu de Gaita 16
E:Nivel 2
M:6/8
L:1/8
Q:1/4=150
K:C
CEG|: c2 c cdc|B2 B BcB|A2 A AGF|EDC B,CD|B2 B BcB|A2 A ABA|GAG FED|[1 C3 CEG :|[2 C5 C|
|: E2 E F2 F|G2 E EDE|F2 D DB,D|E2 C3 C|E2 E F2 F|G2 E EDE|FGF DB,D|[1 C5 C :|[2 C5 G|
|GEG GEG|F3 FDE|FGF EDF|E5 G|GEG GEG|F3 FDE|FGG GAB|c6-|c2 z4|
